X: 11075
T: Duchess, The
R: hornpipe
M: 4/4
K: Dmajor
FAde fedA|GBef g4|Acea bgec|afdB A3G|
FAed cdAF|GBef g2cB|Acea bgaf|gece d4||
afdf cfBA|GBef g4|Acea bgec|afdB A3G|
FAed cdAF|GBef g2cB|Acea bgaf|gece d4||

